src/icons/whole-word.svg

<svg width="16" height="16" xmlns="http://www.w3.org/2000/svg"><path fill-rule="evenodd" clip-rule="evenodd" d="M1 2h14v1H1V2zm13 2h-1v8h1V4zm-2.728 4.387a2.353 2.353 0 0 0-.36-.786 1.746 1.746 0 0 0-.609-.53 1.832 1.832 0 0 0-.866-.193c-.198 0-.38.024-.547.073a1.76 1.76 0 0 0-.453.205 1.724 1.724 0 0 0-.365.318l-.179.258V4.578H7V12h.893v-.575l.126.175c.087.102.189.19.304.269.117.078.249.14.398.186.149.046.314.068.498.068.353 0 .666-.071.937-.212.272-.143.499-.338.682-.586.183-.25.321-.543.414-.879.093-.338.14-.703.14-1.097a3.756 3.756 0 0 0-.12-.962zM9.793 7.78c.151.071.282.176.39.314.109.14.194.313.255.517.051.174.082.371.089.587l-.007.125c0 .327-.033.62-.1.869a1.886 1.886 0 0 1-.278.614c-.117.162-.26.285-.421.366-.322.162-.76.166-1.069.015a1.264 1.264 0 0 1-.393-.296 1.273 1.273 0 0 1-.218-.367s-.179-.447-.179-.947c0-.5.179-1.002.179-1.002.062-.177.136-.318.224-.43.114-.143.256-.259.424-.345.168-.086.365-.129.587-.129.19 0 .364.037.517.109zM15 13H1v1h14v-1zM2.813 10l-.728 2.031H1l.025-.072 2.441-7.086h.941l2.485 7.158H5.81L5.032 10H2.813zm1.121-3.578h-.022l-.905 2.753h1.841l-.914-2.753z"/></svg>

<svg width="16" height="16" viewBox="0 0 16 16" fill="none" xmlns="http://www.w3.org/2000/svg">
<path fill-rule="evenodd" clip-rule="evenodd" d="M1 2H15V3H1V2ZM14 4H13V12H14V4ZM11.272 8.387C11.194 8.088 11.073 7.825 10.912 7.601C10.751 7.377 10.547 7.2 10.303 7.071C10.059 6.942 9.769 6.878 9.437 6.878C9.239 6.878 9.057 6.902 8.89 6.951C8.725 7 8.574 7.068 8.437 7.156C8.301 7.244 8.18 7.35 8.072 7.474L7.893 7.732V4.578H7V12H7.893V11.425L8.019 11.6C8.106 11.702 8.208 11.79 8.323 11.869C8.44 11.947 8.572 12.009 8.721 12.055C8.87 12.101 9.035 12.123 9.219 12.123C9.572 12.123 9.885 12.052 10.156 11.911C10.428 11.768 10.655 11.573 10.838 11.325C11.021 11.075 11.159 10.782 11.252 10.446C11.345 10.108 11.392 9.743 11.392 9.349C11.391 9.007 11.352 8.686 11.272 8.387ZM9.793 7.78C9.944 7.851 10.075 7.956 10.183 8.094C10.292 8.234 10.377 8.407 10.438 8.611C10.489 8.785 10.52 8.982 10.527 9.198L10.52 9.323C10.52 9.65 10.487 9.943 10.42 10.192C10.353 10.438 10.259 10.645 10.142 10.806C10.025 10.968 9.882 11.091 9.721 11.172C9.399 11.334 8.961 11.338 8.652 11.187C8.499 11.112 8.366 11.012 8.259 10.891C8.174 10.795 8.103 10.675 8.041 10.524C8.041 10.524 7.862 10.077 7.862 9.577C7.862 9.077 8.041 8.575 8.041 8.575C8.103 8.398 8.177 8.257 8.265 8.145C8.379 8.002 8.521 7.886 8.689 7.8C8.857 7.714 9.054 7.671 9.276 7.671C9.466 7.671 9.64 7.708 9.793 7.78ZM15 13H1V14H15V13ZM2.813 10L2.085 12.031H1L1.025 11.959L3.466 4.87305H4.407L6.892 12.031H5.81L5.032 10H2.813ZM3.934 6.42205H3.912L3.007 9.17505H4.848L3.934 6.42205Z" fill="#C5C5C5"/>
</svg>
